X:1
T:Title
%%score { 1 | 2 }
L:1/8
M:4/4
K:Eb
V:1 treble nm="Grand Piano"
V:2 bass 
V:1
 z4 z2[Q:1/4=100] E>F | G>G G>G G2 [DF]>[CE] |[M:3/4] [CE]>[CE] [CE]>[A,C] [CE]2 |[M:1/4] E>F | %4
[M:4/4] G>G G>G G2 B>G | [DF]6 E>F |[M:3/4] G>G G>G G2 |[M:1/4] [DF]>[CE] | %8
[M:4/4] [CE]>[CE] [CE]>C [CE]2 E>F | G>G G>G [B,DF]>[G,E] [B,EG]>[A,DF] |[M:3/4] [G,E]6 | %11
[M:1/4] [Ge]>[Bd] |[M:4/4] c>c c>c c2 (3[ce][Bd][Ac] |[M:3/4] [GB]>[GB] [GB]>[EG] [GB]2 | %14
[M:1/4] (3[GB][FA][EG] |[M:3/4] [DF]>[DF] [DF]>[EG] [FA][FA] |[M:1/4] [EB]>[DA] |[M:3/4] [EG]6 | %18
[M:1/4] [Ge]>[Bd] |[M:4/4] c>c c>c c2 (3[ce][Bd][Ac] |[M:3/4] [GB]>[GB] [GB]>[EG] [GB]2 | %21
[M:1/4] (3[GB][FA][EG] |[M:3/4] [DF]>[DF] [DF]>[EG] [FA][FA] |[M:1/4] [EG]>[DF] |[M:3/4] E6 |] %25
V:2
 z4 z2 [E,G,B,]>[E,A,B,] | [E,B,E]>[E,B,E] [E,B,E]>[E,B,E] [E,B,E]2 [B,,B,]>[C,G,] | %2
[M:3/4] [A,,A,]>[A,,A,] [A,,A,]>[A,,E,] [A,,A,]2 |[M:1/4] [E,G,B,]>[E,A,B,] | %4
[M:4/4] [E,B,E]>[E,B,E] [E,B,E]>[E,B,E] [E,B,E]2 [G,B,E]>[E,B,E] | [B,,B,]6 [E,G,B,]>[E,A,B,] | %6
[M:3/4] [E,B,E]>[E,B,E] [E,B,E]>[E,B,E] [E,B,E]2 |[M:1/4] [B,,B,]>[C,G,] | %8
[M:4/4] [A,,A,]>[A,,A,] [A,,A,]>[A,,A,] [A,,A,]2 [E,G,B,]>[E,A,B,] | %9
 [E,B,E]>[E,B,E] [E,B,E]>[E,B,E] B,,>C, B,,>B,, |[M:3/4] E,6 |[M:1/4] [E,B,]>[K:treble][G,E] | %12
[M:4/4] [A,EA]>[A,EA] [A,EA]>[A,EA] [A,EA]2[K:bass] (3:2:2[A,E]2 [A,E] | %13
[M:3/4] [E,E]>[E,E] [E,E]>[E,B,] [E,E]2 |[M:1/4] (3:2:2[D,B,]2 [E,B,] | %15
[M:3/4] [B,,B,]>[B,,B,] [B,,B,]>[B,,B,] [B,,B,][B,,B,] |[M:1/4] [B,,G,]>[B,,B,] |[M:3/4] [E,B,]6 | %18
[M:1/4] [E,B,]>[K:treble][G,E] | %19
[M:4/4] [A,EA]>[A,EA] [A,EA]>[A,EA] [A,EA]2[K:bass] (3:2:2[A,E]2 [A,E] | %20
[M:3/4] [E,E]>[E,E] [E,E]>[E,B,] [E,E]2 |[M:1/4] (3:2:2[D,B,]2 [E,B,] | %22
[M:3/4] [B,,B,]>[B,,B,] [B,,B,]>[B,,B,] [B,,B,][B,,B,] |[M:1/4] [B,,B,]>[B,,A,] |[M:3/4] [E,G,]6 |] %25

